icons/modern/page-with-curl.svg

<svg width="32" height="32" viewBox="0 0 32 32" fill="none" xmlns="http://www.w3.org/2000/svg">
<g filter="url(#filter0_ii_18_21031)">
<path d="M4.03516 3.10156C4.03516 2.54928 4.48287 2.10156 5.03516 2.10156H25.1914C25.7437 2.10156 26.1914 2.54928 26.1914 3.10156V27.8984C26.1914 29.003 25.296 29.8984 24.1914 29.8984H8.03516C5.82602 29.8984 4.03516 28.1076 4.03516 25.8984V3.10156Z" fill="url(#paint0_linear_18_21031)"/>
<path d="M4.03516 3.10156C4.03516 2.54928 4.48287 2.10156 5.03516 2.10156H25.1914C25.7437 2.10156 26.1914 2.54928 26.1914 3.10156V27.8984C26.1914 29.003 25.296 29.8984 24.1914 29.8984H8.03516C5.82602 29.8984 4.03516 28.1076 4.03516 25.8984V3.10156Z" fill="url(#paint1_radial_18_21031)"/>
</g>
<g filter="url(#filter1_i_18_21031)">
<path d="M12.9414 25.5547C12.3891 25.5547 11.9414 26.0024 11.9414 26.5547V26.6452C11.9414 27.9102 10.2888 29.5986 8.60938 29.8502V29.8984H25.5335C27.5537 29.8984 29.1914 28.2607 29.1914 26.2405C29.1914 25.8618 28.8843 25.5547 28.5056 25.5547H12.9414Z" fill="url(#paint2_linear_18_21031)"/>
</g>
<path d="M12.9414 25.5547C12.3891 25.5547 11.9414 26.0024 11.9414 26.5547V26.6452C11.9414 27.9102 10.2888 29.5986 8.60938 29.8502V29.8984H25.5335C27.5537 29.8984 29.1914 28.2607 29.1914 26.2405C29.1914 25.8618 28.8843 25.5547 28.5056 25.5547H12.9414Z" fill="url(#paint3_linear_18_21031)"/>
<path d="M12.9414 25.5547C12.3891 25.5547 11.9414 26.0024 11.9414 26.5547V26.6452C11.9414 27.9102 10.2888 29.5986 8.60938 29.8502V29.8984H25.5335C27.5537 29.8984 29.1914 28.2607 29.1914 26.2405C29.1914 25.8618 28.8843 25.5547 28.5056 25.5547H12.9414Z" fill="url(#paint4_radial_18_21031)"/>
<rect x="8.16797" y="10.0312" width="13.9141" height="1.02344" rx="0.511719" fill="#9C96A2"/>
<rect x="8.16797" y="13.0312" width="13.9141" height="1.02344" rx="0.511719" fill="#9C96A2"/>
<rect x="8.16797" y="16.0312" width="13.9141" height="1.02344" rx="0.511719" fill="#9C96A2"/>
<rect x="8.16797" y="19.0312" width="8.97656" height="1.02344" rx="0.511719" fill="#9C96A2"/>
<defs>
<filter id="filter0_ii_18_21031" x="3.88516" y="2.00156" width="22.4063" height="27.8969" filterUnits="userSpaceOnUse" color-interpolation-filters="sRGB">
<feFlood flood-opacity="0" result="BackgroundImageFix"/>
<feBlend mode="normal" in="SourceGraphic" in2="BackgroundImageFix" result="shape"/>
<feColorMatrix in="SourceAlpha" type="matrix" values="0 0 0 0 0 0 0 0 0 0 0 0 0 0 0 0 0 0 127 0" result="hardAlpha"/>
<feOffset dx="-0.15"/>
<feGaussianBlur stdDeviation="0.15"/>
<feComposite in2="hardAlpha" operator="arithmetic" k2="-1" k3="1"/>
<feColorMatrix type="matrix" values="0 0 0 0 1 0 0 0 0 1 0 0 0 0 1 0 0 0 1 0"/>
<feBlend mode="normal" in2="shape" result="effect1_innerShadow_18_21031"/>
<feColorMatrix in="SourceAlpha" type="matrix" values="0 0 0 0 0 0 0 0 0 0 0 0 0 0 0 0 0 0 127 0" result="hardAlpha"/>
<feOffset dx="0.1" dy="-0.1"/>
<feGaussianBlur stdDeviation="0.1"/>
<feComposite in2="hardAlpha" operator="arithmetic" k2="-1" k3="1"/>
<feColorMatrix type="matrix" values="0 0 0 0 0.741176 0 0 0 0 0.701961 0 0 0 0 0.784314 0 0 0 1 0"/>
<feBlend mode="normal" in2="effect1_innerShadow_18_21031" result="effect2_innerShadow_18_21031"/>
</filter>
<filter id="filter1_i_18_21031" x="8.60938" y="25.4547" width="20.782" height="4.44375" filterUnits="userSpaceOnUse" color-interpolation-filters="sRGB">
<feFlood flood-opacity="0" result="BackgroundImageFix"/>
<feBlend mode="normal" in="SourceGraphic" in2="BackgroundImageFix" result="shape"/>
<feColorMatrix in="SourceAlpha" type="matrix" values="0 0 0 0 0 0 0 0 0 0 0 0 0 0 0 0 0 0 127 0" result="hardAlpha"/>
<feOffset dx="0.2" dy="-0.1"/>
<feGaussianBlur stdDeviation="0.1"/>
<feComposite in2="hardAlpha" operator="arithmetic" k2="-1" k3="1"/>
<feColorMatrix type="matrix" values="0 0 0 0 0.776471 0 0 0 0 0.74902 0 0 0 0 0.803922 0 0 0 1 0"/>
<feBlend mode="normal" in2="shape" result="effect1_innerShadow_18_21031"/>
</filter>
<linearGradient id="paint0_linear_18_21031" x1="6.00391" y1="18.5234" x2="25.4414" y2="18.5234" gradientUnits="userSpaceOnUse">
<stop stop-color="#EAE3F2"/>
<stop offset="0.829582" stop-color="#E0D9E7"/>
</linearGradient>
<radialGradient id="paint1_radial_18_21031" cx="0" cy="0" r="1" gradientUnits="userSpaceOnUse" gradientTransform="translate(8.41016 29.8984) rotate(-90) scale(5.3125 13.625)">
<stop offset="0.276471" stop-color="#EAE7ED"/>
<stop offset="1" stop-color="#EAE7EE" stop-opacity="0"/>
</radialGradient>
<linearGradient id="paint2_linear_18_21031" x1="18.9004" y1="25.9297" x2="18.9004" y2="29.8984" gradientUnits="userSpaceOnUse">
<stop stop-color="#DFD5EA"/>
<stop offset="1" stop-color="#C8B2DE"/>
</linearGradient>
<linearGradient id="paint3_linear_18_21031" x1="16.6914" y1="30.0547" x2="16.6914" y2="28.8672" gradientUnits="userSpaceOnUse">
<stop stop-color="#AB89CA"/>
<stop offset="1" stop-color="#C8B3DE" stop-opacity="0"/>
</linearGradient>
<radialGradient id="paint4_radial_18_21031" cx="0" cy="0" r="1" gradientUnits="userSpaceOnUse" gradientTransform="translate(13.6602 32.3359) rotate(-24.3434) scale(16.944 7.95423)">
<stop offset="0.94891" stop-color="#E7DFEF" stop-opacity="0"/>
<stop offset="0.995179" stop-color="#FFFCFF"/>
</radialGradient>
</defs>
</svg>

<svg width="32" height="32" fill="none" xmlns="http://www.w3.org/2000/svg"><g filter="url(#a)"><path d="M4.035 3.102a1 1 0 0 1 1-1h20.156a1 1 0 0 1 1 1v24.796a2 2 0 0 1-2 2H8.035a4 4 0 0 1-4-4V3.102Z" fill="url(#b)"/><path d="M4.035 3.102a1 1 0 0 1 1-1h20.156a1 1 0 0 1 1 1v24.796a2 2 0 0 1-2 2H8.035a4 4 0 0 1-4-4V3.102Z" fill="url(#c)"/></g><g filter="url(#d)"><path d="M12.941 25.555a1 1 0 0 0-1 1v.09c0 1.265-1.652 2.954-3.332 3.205v.048h16.925a3.658 3.658 0 0 0 3.657-3.657.686.686 0 0 0-.685-.686H12.94Z" fill="url(#e)"/></g><path d="M12.941 25.555a1 1 0 0 0-1 1v.09c0 1.265-1.652 2.954-3.332 3.205v.048h16.925a3.658 3.658 0 0 0 3.657-3.657.686.686 0 0 0-.685-.686H12.94Z" fill="url(#f)"/><path d="M12.941 25.555a1 1 0 0 0-1 1v.09c0 1.265-1.652 2.954-3.332 3.205v.048h16.925a3.658 3.658 0 0 0 3.657-3.657.686.686 0 0 0-.685-.686H12.94Z" fill="url(#g)"/><rect x="8.168" y="10.031" width="13.914" height="1.023" rx=".512" fill="#9C96A2"/><rect x="8.168" y="13.031" width="13.914" height="1.023" rx=".512" fill="#9C96A2"/><rect x="8.168" y="16.031" width="13.914" height="1.023" rx=".512" fill="#9C96A2"/><rect x="8.168" y="19.031" width="8.977" height="1.023" rx=".512" fill="#9C96A2"/><defs><linearGradient id="b" x1="6.004" y1="18.523" x2="25.441" y2="18.523" gradientUnits="userSpaceOnUse"><stop stop-color="#EAE3F2"/><stop offset=".83" stop-color="#E0D9E7"/></linearGradient><linearGradient id="e" x1="18.9" y1="25.93" x2="18.9" y2="29.898" gradientUnits="userSpaceOnUse"><stop stop-color="#DFD5EA"/><stop offset="1" stop-color="#C8B2DE"/></linearGradient><linearGradient id="f" x1="16.691" y1="30.055" x2="16.691" y2="28.867" gradientUnits="userSpaceOnUse"><stop stop-color="#AB89CA"/><stop offset="1" stop-color="#C8B3DE" stop-opacity="0"/></linearGradient><radialGradient id="c" cx="0" cy="0" r="1" gradientUnits="userSpaceOnUse" gradientTransform="matrix(0 -5.3125 13.625 0 8.41 29.898)"><stop offset=".276" stop-color="#EAE7ED"/><stop offset="1" stop-color="#EAE7EE" stop-opacity="0"/></radialGradient><radialGradient id="g" cx="0" cy="0" r="1" gradientUnits="userSpaceOnUse" gradientTransform="matrix(15.43753 -6.9844 3.27877 7.24703 13.66 32.336)"><stop offset=".949" stop-color="#E7DFEF" stop-opacity="0"/><stop offset=".995" stop-color="#FFFCFF"/></radialGradient><filter id="a" x="3.885" y="2.002" width="22.406" height="27.897" filterUnits="userSpaceOnUse" color-interpolation-filters="sRGB"><feFlood flood-opacity="0" result="BackgroundImageFix"/><feBlend in="SourceGraphic" in2="BackgroundImageFix" result="shape"/><feColorMatrix in="SourceAlpha" values="0 0 0 0 0 0 0 0 0 0 0 0 0 0 0 0 0 0 127 0" result="hardAlpha"/><feOffset dx="-.15"/><feGaussianBlur stdDeviation=".15"/><feComposite in2="hardAlpha" operator="arithmetic" k2="-1" k3="1"/><feColorMatrix values="0 0 0 0 1 0 0 0 0 1 0 0 0 0 1 0 0 0 1 0"/><feBlend in2="shape" result="effect1_innerShadow_18_21031"/><feColorMatrix in="SourceAlpha" values="0 0 0 0 0 0 0 0 0 0 0 0 0 0 0 0 0 0 127 0" result="hardAlpha"/><feOffset dx=".1" dy="-.1"/><feGaussianBlur stdDeviation=".1"/><feComposite in2="hardAlpha" operator="arithmetic" k2="-1" k3="1"/><feColorMatrix values="0 0 0 0 0.741176 0 0 0 0 0.701961 0 0 0 0 0.784314 0 0 0 1 0"/><feBlend in2="effect1_innerShadow_18_21031" result="effect2_innerShadow_18_21031"/></filter><filter id="d" x="8.609" y="25.455" width="20.782" height="4.444" filterUnits="userSpaceOnUse" color-interpolation-filters="sRGB"><feFlood flood-opacity="0" result="BackgroundImageFix"/><feBlend in="SourceGraphic" in2="BackgroundImageFix" result="shape"/><feColorMatrix in="SourceAlpha" values="0 0 0 0 0 0 0 0 0 0 0 0 0 0 0 0 0 0 127 0" result="hardAlpha"/><feOffset dx=".2" dy="-.1"/><feGaussianBlur stdDeviation=".1"/><feComposite in2="hardAlpha" operator="arithmetic" k2="-1" k3="1"/><feColorMatrix values="0 0 0 0 0.776471 0 0 0 0 0.74902 0 0 0 0 0.803922 0 0 0 1 0"/><feBlend in2="shape" result="effect1_innerShadow_18_21031"/></filter></defs></svg>
